assets/svg/icon_profile_location.svg

<svg width="24" height="24" viewBox="0 0 24 24" fill="none" xmlns="http://www.w3.org/2000/svg">
<g id="icon/profile_location">
<path id="Vector (Stroke) (Stroke)" fill-rule="evenodd" clip-rule="evenodd" d="M11.9375 2.8125C9.97777 2.81241 8.09721 3.58579 6.70454 4.96453ZM11.9375 2.8125C13.8972 2.81241 15.7778 3.58579 17.1705 4.96453C18.5631 6.34329 19.3554 8.21599 19.375 10.1756L19.375 10.18C19.375 12.7379 17.7561 15.3736 16.1784 17.3461C14.6227 19.2909 13.024 20.6915 12.781 20.8806C12.5447 21.0788 12.2461 21.1876 11.9375 21.1876C11.6247 21.1876 11.3221 21.0758 11.0844 20.8725L11.0821 20.8705L11.0808 20.8694C10.9316 20.7401 9.30131 19.327 7.70509 17.3362C6.12526 15.3658 4.5 12.7344 4.5 10.18V10.1756C4.5196 8.21599 5.31185 6.34329 6.70454 4.96453" stroke="#727689" stroke-width="1.2"/>
<path id="Vector (Stroke)" d="M10.6944 7.76501C11.0994 7.49442 11.5755 7.35 12.0625 7.35C12.7156 7.35 13.3419 7.60944 13.8038 8.07125C14.2656 8.53306 14.525 9.1594 14.525 9.8125C14.525 10.2995 14.3806 10.7756 14.11 11.1806C13.8394 11.5855 13.4548 11.9012 13.0049 12.0876C12.5549 12.2739 12.0598 12.3227 11.5821 12.2277C11.1044 12.1327 10.6656 11.8981 10.3213 11.5538L9.89699 11.978L10.3213 11.5538C9.97686 11.2094 9.74233 10.7706 9.64732 10.2929C9.5523 9.81523 9.60107 9.32011 9.78745 8.87014C9.97383 8.42018 10.2895 8.03559 10.6944 7.76501Z" stroke="#727689" stroke-width="1.2"/>
</g>
</svg>

<svg xmlns="http://www.w3.org/2000/svg" width="24" height="24" fill="none"><g stroke="#727689" stroke-width="1.2"><path d="M11.938 2.813c-1.96 0-3.84.773-5.233 2.152Zm0 0a7.44 7.44 0 0 1 7.437 7.363v.004c0 2.558-1.619 5.194-3.197 7.166-1.555 1.945-3.154 3.346-3.397 3.535a1.31 1.31 0 0 1-1.697-.009l-.002-.002h-.001c-.15-.13-1.78-1.543-3.376-3.534-1.58-1.97-3.205-4.602-3.205-7.156v-.004a7.44 7.44 0 0 1 2.205-5.211" clip-rule="evenodd"/><path d="M10.694 7.765a2.463 2.463 0 1 1-.373 3.789l-.424.424.424-.424a2.462 2.462 0 0 1 .373-3.789Z"/></g></svg>
